X: 10562
T: MIDNIGHT HOUR
C:
%R: jig
B: Elias Howe "The Musician's Companion" Part 1 1842 p.56 #2
S: http://imslp.org/wiki/The_Musician's_Companion_(Howe,_Elias)
Z: 2015 John Chambers <jc:trillian.mit.edu>
M: 6/8
L: 1/8
K: G
% - - - - - - - - - - - - - - - - - - - - - - - - -
|:\
GDG BGB | dBd g3 | d2e dcB | ABG FED |\
GDG BGB | dBd g3 | d2e dcB | AGF G3 :|
|:\
gfg efg | abg fed | efg dcB | ABG FED |\
gfg efg | abg fed | cea Bdg | AGF G3 :|
% - - - - - - - - - - - - - - - - - - - - - - - - -


